setcpm(170/4)
samples('github:switchangel/breaks')
samples('github:switchangel/pad')
samples('github:tidalcycles/uzu-drumkit')

$: s("bd:4").beat("0,10",16)

$: s("sd:2").beat("4,12",16)

$: s("white!8").decay(tri.range(0.03,0.1).fast(2)).gain(0.6)

$: s("rim:1").struct(rand.mul(.6).round().seg(16).rib(3,2))

